packages/ui/public/icons/file-icon.svg

<svg width="24" height="24" viewBox="0 0 24 24" fill="none" xmlns="http://www.w3.org/2000/svg">
<path opacity="0.4" d="M4 6.8C4 5.11984 4 4.27976 4.32698 3.63803C4.6146 3.07354 5.07354 2.6146 5.63803 2.32698C6.27976 2 7.11984 2 8.8 2H15.2C16.8802 2 17.7202 2 18.362 2.32698C18.9265 2.6146 19.3854 3.07354 19.673 3.63803C20 4.27976 20 5.11984 20 6.8V17.2C20 18.8802 20 19.7202 19.673 20.362C19.3854 20.9265 18.9265 21.3854 18.362 21.673C17.7202 22 16.8802 22 15.2 22H8.8C7.11984 22 6.27976 22 5.63803 21.673C5.07354 21.3854 4.6146 20.9265 4.32698 20.362C4 19.7202 4 18.8802 4 17.2V6.8Z" stroke="white" stroke-width="2" stroke-linecap="round" stroke-linejoin="round"/>
<path d="M16 7H8M14 11H8H14ZM10 15H8H10Z" stroke="white" stroke-width="2" stroke-linecap="round" stroke-linejoin="round"/>
</svg>

<svg width="24" height="24" fill="none" xmlns="http://www.w3.org/2000/svg"><path opacity=".4" d="M4 6.8c0-1.68 0-2.52.327-3.162a3 3 0 0 1 1.311-1.311C6.28 2 7.12 2 8.8 2h6.4c1.68 0 2.52 0 3.162.327a3 3 0 0 1 1.311 1.311C20 4.28 20 5.12 20 6.8v10.4c0 1.68 0 2.52-.327 3.162a3 3 0 0 1-1.311 1.311C17.72 22 16.88 22 15.2 22H8.8c-1.68 0-2.52 0-3.162-.327a3 3 0 0 1-1.311-1.311C4 19.72 4 18.88 4 17.2V6.8Z" stroke="#fff" stroke-width="2" stroke-linecap="round" stroke-linejoin="round"/><path d="M16 7H8m6 4H8h6Zm-4 4H8h2Z" stroke="#fff" stroke-width="2" stroke-linecap="round" stroke-linejoin="round"/></svg>
